icon-svg/airfryer.svg

<svg xmlns="http://www.w3.org/2000/svg" fill="#44739e" viewBox="0 0 24 24"><path d="M10.577 8.138a.888.888 0 0 0-.826.939.889.889 0 0 0 .826.94.889.889 0 0 0 .825-.94.888.888 0 0 0-.825-.939m3.79 5.099-.518-.03a.3.3 0 0 1-.149-.05l-.262 6.14a1.5 1.5 0 0 0 .477.1l.686.023.264-5.575.566-.728.015-.6-.479.48a.739.739 0 0 1-.6.24m-8.853-.445L5 12.762a.3.3 0 0 1-.148-.051L4.587 18.8a2.54 2.54 0 0 0 .506.078l.657.033.261-5.511.567-.728.014-.6-.479.479a.738.738 0 0 1-.599.241m8.178.03a.142.142 0 0 0-.048.122l.053.08a.21.21 0 0 0 .051.052.2.2 0 0 0 .036.007l.42.025a.848.848 0 0 0 .726-.335h.005l.447-.429-1.122-.044Zm-8.773-.448a.15.15 0 0 0 .092.26l.42.025a.846.846 0 0 0 .726-.334l.349-.4-.968-.06zm5.455 6.486 2.984.128.252-5.895a.25.25 0 0 1-.047-.079.241.241 0 0 1 .067-.262l.5-.457-3.667-.129zm4.338.186 3.426.147a4.92 4.92 0 0 0 1.974-.32l-.093-6.26a.341.341 0 0 0-.446-.32 3.23 3.23 0 0 1-1.108.155l-2.922-.1-.019.8-.567.729zM5.86 18.56l4.42.295.066-4.901.024-1.793-3.681-.228-.019.767-.566.729Zm-3.551-7.105-.03-.012-.15 6.457a5.035 5.035 0 0 0 1.979.548l.4.027.257-6.01.013.019a.237.237 0 0 1 .08-.175l.543-.449-1.966-.121a3.38 3.38 0 0 1-1.126-.284m15.574 7.957-3.18-.183-.013.284-.778-.027a1.57 1.57 0 0 1-.54-.114l-.03-.013.009-.208-7.5-.433-.014.287-.751-.039a2.6 2.6 0 0 1-.562-.091l-.036-.009.01-.226-.574-.033a4.07 4.07 0 0 1-1.524-.395l.923.887a1.89 1.89 0 0 0 1.187.523l12.868.828a2.66 2.66 0 0 0 1.823-.566l1.448-1.138a4.01 4.01 0 0 1-1.739.636 5.9 5.9 0 0 1-1.027.03M4.957 10.009a.4.4 0 0 0 .285.139l10.676.573a.414.414 0 0 0 .437-.382l.324-4.015-11.5-.551-.321 3.934a.406.406 0 0 0 .099.302m5.62.1a.982.982 0 0 1-.92-1.033.983.983 0 0 1 .92-1.033.982.982 0 0 1 .923 1.034.982.982 0 0 1-.923 1.033Zm2.883-2.692a.077.077 0 0 1 .081-.074l1.328.061a.077.077 0 0 1 .073.081l-.026.581a.078.078 0 0 1-.081.074l-1.328-.061A.077.077 0 0 1 13.434 8Zm.046 2.265 1.048.048a.2443.2443 0 1 1-.023.488l-1.047-.048a.2442.2442 0 1 1 .022-.488m-4.214-2.27 2.783.122a.224.224 0 0 1 .214.23.223.223 0 0 1-.233.216l-2.784-.122a.2232.2232 0 0 1 .02-.446m-2.634-.335A.077.077 0 0 1 6.738 7l1.3.06a.077.077 0 0 1 .073.08l-.027.583a.077.077 0 0 1-.08.073l-1.3-.06a.076.076 0 0 1-.073-.08Zm.057 2.265 1.062.048a.245.245 0 0 1-.022.489L6.693 9.83a.2442.2442 0 0 1 .022-.488m15.009-2.713v-.108h.006l-.006-.508-1.15.7a2.06 2.06 0 0 1-1.025.226l-2.813-.117-.285 3.531a.507.507 0 0 1-.507.469h-.028l-10.679-.58a.5.5 0 0 1-.472-.542l.277-3.37L3.1 6.249a.41.41 0 0 1-.252-.1l-.06.358a.045.045 0 0 0 .007.018l-.016.119-.634 4.746L2 17.515a.87.87 0 0 0 .038.272l.15-6.468.057.014a.66.66 0 0 1 .1.036 3.24 3.24 0 0 0 1.094.269l3.244.2.007-.007v.008l3.73.231 4.82.169.367.012 2.862.1a3.11 3.11 0 0 0 1.075-.15.434.434 0 0 1 .568.407l.094 6.283a3.95 3.95 0 0 0 .471-.28l.572-.4.751-.722ZM2.963 5.572l16.354.785a3.245 3.245 0 0 0 1.775-.5l.636-.39.006-.395-1.166.587a2.06 2.06 0 0 1-1.022.224L3.1 5.2a.413.413 0 0 1-.235-.087v.36a.1.1 0 0 0 .098.099m.126-.472.129.006 16.332.678h.133a3.8 3.8 0 0 0 1.052-.366l.944-.452c.045-.022.041-.039.04-.044-.017-.08-.282-.217-.479-.224L6.531 4A6.44 6.44 0 0 0 4 4.41l-1.02.384a.153.153 0 0 0-.1.171.2.2 0 0 0 .015.046.313.313 0 0 0 .194.089"/></svg>

<?xml version="1.0" encoding="UTF-8"?>
<svg width="24px" fill="#44739e" height="24px" viewBox="0 0 24 24" version="1.1" xmlns="http://www.w3.org/2000/svg" xmlns:xlink="http://www.w3.org/1999/xlink">
            <path d="m 10.577,8.138 a 0.888,0.888 0 0 0 -0.826,0.939 0.889,0.889 0 0 0 0.826,0.94 0.889,0.889 0 0 0 0.825,-0.94 0.888,0.888 0 0 0 -0.825,-0.939 z m 3.79,5.099 -0.518,-0.03 A 0.3,0.3 0 0 1 13.7,13.157 l -0.262,6.14 a 1.5,1.5 0 0 0 0.477,0.1 l 0.686,0.023 0.264,-5.575 0.566,-0.728 0.015,-0.6 -0.479,0.48 a 0.739,0.739 0 0 1 -0.6,0.24 z M 5.514,12.792 5,12.762 A 0.3,0.3 0 0 1 4.852,12.711 L 4.587,18.8 a 2.538,2.538 0 0 0 0.506,0.078 l 0.657,0.033 0.261,-5.511 0.567,-0.728 0.014,-0.6 -0.479,0.479 a 0.738,0.738 0 0 1 -0.599,0.241 z m 8.178,0.03 a 0.142,0.142 0 0 0 -0.048,0.122 l 0.053,0.08 a 0.21,0.21 0 0 0 0.051,0.052 0.191,0.191 0 0 0 0.036,0.007 l 0.42,0.025 a 0.848,0.848 0 0 0 0.726,-0.335 h 0.005 L 15.382,12.344 14.26,12.3 Z M 4.919,12.374 a 0.15,0.15 0 0 0 0.092,0.26 l 0.42,0.025 a 0.846,0.846 0 0 0 0.726,-0.334 l 0.349,-0.4 -0.968,-0.06 z m 5.455,6.486 2.984,0.128 0.252,-5.895 a 0.251,0.251 0 0 1 -0.047,-0.079 0.241,0.241 0 0 1 0.067,-0.262 l 0.5,-0.457 -3.667,-0.129 z m 4.338,0.186 3.426,0.147 a 4.924,4.924 0 0 0 1.974,-0.32 l -0.093,-6.26 a 0.341,0.341 0 0 0 -0.446,-0.32 3.228,3.228 0 0 1 -1.108,0.155 l -2.922,-0.1 -0.019,0.8 -0.567,0.729 z M 5.86,18.56 10.28,18.855 10.346,13.954 10.37,12.161 6.689,11.933 6.67,12.7 6.104,13.429 Z M 2.309,11.455 2.279,11.443 2.129,17.9 a 5.035,5.035 0 0 0 1.979,0.548 l 0.4,0.027 0.257,-6.01 0.013,0.019 a 0.237,0.237 0 0 1 0.08,-0.175 v 0 L 5.401,11.86 3.435,11.739 A 3.376,3.376 0 0 1 2.309,11.455 Z m 15.574,7.957 -3.18,-0.183 -0.013,0.284 -0.778,-0.027 a 1.567,1.567 0 0 1 -0.54,-0.114 l -0.03,-0.013 0.009,-0.208 -7.5,-0.433 -0.014,0.287 -0.751,-0.039 A 2.605,2.605 0 0 1 4.524,18.875 L 4.488,18.866 4.498,18.64 3.924,18.607 A 4.065,4.065 0 0 1 2.4,18.212 l 0.923,0.887 a 1.889,1.889 0 0 0 1.187,0.523 l 12.868,0.828 a 2.661,2.661 0 0 0 1.823,-0.566 l 1.448,-1.138 a 4.012,4.012 0 0 1 -1.739,0.636 5.884,5.884 0 0 1 -1.027,0.03 z M 4.957,10.009 a 0.4,0.4 0 0 0 0.285,0.139 l 10.676,0.573 a 0.414,0.414 0 0 0 0.437,-0.382 L 16.679,6.324 5.179,5.773 4.858,9.707 a 0.406,0.406 0 0 0 0.099,0.302 z m 5.62,0.1 A 0.982,0.982 0 0 1 9.657,9.076 0.983,0.983 0 0 1 10.577,8.043 0.982,0.982 0 0 1 11.5,9.077 0.982,0.982 0 0 1 10.577,10.11 Z M 13.46,7.417 a 0.077,0.077 0 0 1 0.081,-0.074 l 1.328,0.061 a 0.077,0.077 0 0 1 0.073,0.081 L 14.916,8.066 A 0.078,0.078 0 0 1 14.835,8.14 L 13.507,8.079 A 0.077,0.077 0 0 1 13.434,8 Z m 0.046,2.265 1.048,0.048 a 0.24427085,0.24427085 0 1 1 -0.023,0.488 L 13.484,10.17 a 0.24424782,0.24424782 0 1 1 0.022,-0.488 z m -4.214,-2.27 2.783,0.122 a 0.224,0.224 0 0 1 0.214,0.23 v 0 A 0.223,0.223 0 0 1 12.056,7.98 L 9.272,7.858 A 0.2232241,0.2232241 0 0 1 9.292,7.412 Z M 6.658,7.077 A 0.077,0.077 0 0 1 6.738,7 l 1.3,0.06 A 0.077,0.077 0 0 1 8.111,7.14 L 8.084,7.723 a 0.077,0.077 0 0 1 -0.08,0.073 l -1.3,-0.06 A 0.076,0.076 0 0 1 6.631,7.656 Z M 6.715,9.342 7.777,9.39 A 0.245,0.245 0 0 1 7.755,9.879 L 6.693,9.83 A 0.24424782,0.24424782 0 0 1 6.715,9.342 Z M 21.724,6.629 V 6.521 h 0.006 l -0.006,-0.508 -1.15,0.7 a 2.059,2.059 0 0 1 -1.025,0.226 l -2.813,-0.117 -0.285,3.531 a 0.507,0.507 0 0 1 -0.507,0.469 H 15.916 L 5.237,10.242 A 0.5,0.5 0 0 1 4.765,9.7 L 5.042,6.33 3.1,6.249 A 0.411,0.411 0 0 1 2.848,6.149 L 2.788,6.507 A 0.045,0.045 0 0 0 2.795,6.525 L 2.779,6.644 2.145,11.39 2,17.515 a 0.873,0.873 0 0 0 0.038,0.272 l 0.15,-6.468 0.057,0.014 a 0.664,0.664 0 0 1 0.1,0.036 3.24,3.24 0 0 0 1.094,0.269 l 3.244,0.2 0.007,-0.007 v 0.008 l 3.73,0.231 4.82,0.169 0.367,0.012 v 0 l 2.862,0.1 a 3.113,3.113 0 0 0 1.075,-0.15 0.434,0.434 0 0 1 0.568,0.407 l 0.094,6.283 a 3.946,3.946 0 0 0 0.471,-0.28 l 0.572,-0.4 L 22,17.489 Z M 2.963,5.572 19.317,6.357 a 3.245,3.245 0 0 0 1.775,-0.5 l 0.636,-0.39 0.006,-0.395 -1.166,0.587 A 2.058,2.058 0 0 1 19.546,5.883 L 3.1,5.2 A 0.413,0.413 0 0 1 2.865,5.113 v 0.36 A 0.1,0.1 0 0 0 2.963,5.572 Z M 3.089,5.1 3.218,5.106 19.55,5.784 c 0.044,0 0.088,0 0.133,0 A 3.8,3.8 0 0 0 20.735,5.418 L 21.679,4.966 C 21.724,4.944 21.72,4.927 21.719,4.922 21.702,4.842 21.437,4.705 21.24,4.698 L 6.531,4 A 6.437,6.437 0 0 0 4,4.41 L 2.98,4.794 A 0.153,0.153 0 0 0 2.88,4.965 0.206,0.206 0 0 0 2.895,5.011 0.313,0.313 0 0 0 3.089,5.1 Z"/>

</svg>
